;FLAVOR:Marlin
;TIME:4829
;Filament used: 3.42884m
;Layer height: 0.2
;MINX:45.624
;MINY:45.685
;MINZ:0.2
;MAXX:103.979
;MAXY:95.626
;MAXZ:49.8
;Generated with Cura_SteamEngine 5.0.0-beta+1
M140 S55
M105
M190 S55
M104 S210
M105
M109 S210
M82 ;absolute extrusion mode
M201 X500.00 Y500.00 Z100.00 E5000.00 ;Setup machine max acceleration
M203 X500.00 Y500.00 Z10.00 E50.00 ;Setup machine max feedrate
M204 P500.00 R1000.00 T500.00 ;Setup Print/Retract/Travel acceleration
M205 X8.00 Y8.00 Z0.40 E5.00 ;Setup Jerk
M220 S100 ;Reset Feedrate
M221 S100 ;Reset Flowrate

G28 ;Home

G92 E0 ;Reset Extruder
G1 Z2.0 F3000 ;Move Z Axis up
G1 X10.1 Y20 Z0.28 F5000.0 ;Move to start position
G1 X10.1 Y100.0 Z0.28 F1500.0 E8 ;Draw the first line
G1 X10.4 Y100.0 Z0.28 F5000.0 ;Move to side a little
G1 X10.4 Y20 Z0.28 F1500.0 E15 ;Draw the second line
G92 E0 ;Reset Extruder
G1 Z2.0 F3000 ;Move Z Axis up

M83 ;relative extrusion mode
G1 F2400 E-7
;LAYER_COUNT:250
;LAYER:0
M107
G0 F6000 X51.545 Y53.076 Z0.2
G0 X47.645 Y62.047
;TYPE:SKIRT
G1 F2400 E7
G1 F1200 X47.827 Y60.927 E0.03774
G1 X48.017 Y60.008 E0.03121
G1 X48.19 Y59.397 E0.02112
G1 X48.605 Y58.083 E0.04583
G1 X48.798 Y57.513 E0.02002
G1 X49.091 Y56.742 E0.02743
G1 X49.482 Y55.89 E0.03118
G1 X49.945 Y55.074 E0.0312
G1 X50.476 Y54.301 E0.03119
G1 X51.07 Y53.575 E0.0312
G1 X51.545 Y53.076 E0.02291
G1 X52.603 Y52.041 E0.04923
G1 X53.117 Y51.568 E0.02323
G1 X53.834 Y50.963 E0.0312
G1 X54.599 Y50.421 E0.03118
G1 X55.408 Y49.946 E0.0312
G1 X56.255 Y49.542 E0.03121
G1 X56.906 Y49.289 E0.02323
G1 X58.318 Y48.796 E0.04974
G1 X58.979 Y48.585 E0.02308
G1 X60.163 Y48.278 E0.04068
G1 X60.733 Y48.164 E0.01933
G1 X63.274 Y47.618 E0.08644
G1 X65.733 Y47.017 E0.08419
G1 X68.129 Y46.361 E0.08262
G1 X68.861 Y46.151 E0.02533
G1 X69.773 Y45.931 E0.0312
G1 X71.016 Y45.761 E0.04173
G1 X71.793 Y45.708 E0.0259
G1 X72.392 Y45.685 E0.01994
G1 X73.33 Y45.689 E0.0312
G1 X74.272 Y45.774 E0.03146
G1 X74.459 Y45.799 E0.00627
G1 X75.382 Y45.963 E0.03118
G1 X76.201 Y46.172 E0.02811
G1 X80.027 Y47.293 E0.1326
G1 X82.568 Y47.999 E0.08772
G1 X85.742 Y48.783 E0.10874
G1 X87.497 Y49.264 E0.06052
G1 X88.155 Y49.462 E0.02285
G1 X89.04 Y49.77 E0.03117
G1 X90.206 Y50.313 E0.04278
G1 X91.125 Y50.815 E0.03483
G1 X91.531 Y51.051 E0.01562
G1 X92.678 Y51.818 E0.04589
G1 X93.231 Y52.243 E0.0232
G1 X94.271 Y53.076 E0.04432
G1 X94.977 Y53.693 E0.03119
G1 X95.628 Y54.368 E0.03119
G1 X96.22 Y55.096 E0.03121
G1 X96.543 Y55.556 E0.01869
G1 X97.228 Y56.584 E0.04109
G1 X97.493 Y56.995 E0.01627
G1 X98.894 Y59.034 E0.08228
G1 X101.21 Y62.199 E0.13044
G1 X101.803 Y63.059 E0.03474
G1 X102.302 Y63.853 E0.03119
G1 X102.731 Y64.687 E0.03119
G1 X103.162 Y65.763 E0.03855
G1 X103.248 Y66.016 E0.00889
G1 X103.511 Y66.916 E0.03119
G1 X103.632 Y67.46 E0.01854
G1 X103.73 Y67.965 E0.01711
G1 X103.869 Y68.893 E0.03121
G1 X103.917 Y69.507 E0.02048
G1 X103.964 Y70.54 E0.03439
G1 X103.979 Y71.243 E0.02339
G1 X103.96 Y72.181 E0.0312
G1 X103.86 Y73.114 E0.03121
G1 X103.681 Y74.034 E0.03117
G1 X103.424 Y74.936 E0.03119
G1 X103.134 Y75.72 E0.0278
G1 X102.755 Y76.578 E0.0312
G1 X102.304 Y77.4 E0.03118
G1 X102.041 Y77.813 E0.01629
G1 X101.159 Y79.124 E0.05255
G1 X100.8 Y79.627 E0.02055
G1 X100.316 Y80.257 E0.02642
G1 X98.419 Y82.546 E0.09888
G1 X96.885 Y84.505 E0.08276
G1 X95.354 Y86.578 E0.08571
G1 X94.639 Y87.588 E0.04116
G1 X94.065 Y88.33 E0.0312
G1 X93.43 Y89.02 E0.03119
G1 X92.739 Y89.654 E0.03119
G1 X92.278 Y90.02 E0.01958
G1 X91.619 Y90.506 E0.02723
G1 X91.044 Y90.905 E0.02328
G1 X90.251 Y91.407 E0.03122
G1 X89.419 Y91.839 E0.03118
G1 X88.497 Y92.218 E0.03316
G1 X88.283 Y92.295 E0.00756
G1 X87.573 Y92.524 E0.02481
G1 X86.078 Y92.95 E0.0517
G1 X85.166 Y93.168 E0.03119
G1 X84.675 Y93.252 E0.01657
G1 X83.955 Y93.357 E0.0242
G1 X82.609 Y93.528 E0.04513
G1 X80.039 Y93.891 E0.08633
G1 X77.565 Y94.313 E0.08347
G1 X72.478 Y95.32 E0.17248
G1 X71.874 Y95.429 E0.02041
G1 X71.192 Y95.53 E0.02293
G1 X70.96 Y95.557 E0.00777
G1 X70.024 Y95.626 E0.03122
G1 X69.086 Y95.615 E0.0312
G1 X68.153 Y95.523 E0.03118
G1 X66.906 Y95.274 E0.04229
G1 X65.997 Y95.034 E0.03127
G1 X64.232 Y94.536 E0.061
G1 X62.933 Y94.08 E0.04579
G1 X62.751 Y94.003 E0.00657
G1 X61.904 Y93.601 E0.03118
G1 X61.094 Y93.128 E0.0312
G1 X60.327 Y92.588 E0.0312
G1 X59.481 Y91.867 E0.03697
G1 X58.605 Y91.036 E0.04016
G1 X58.17 Y90.613 E0.02018
G1 X56.287 Y88.883 E0.08505
G1 X54.389 Y87.237 E0.08356
G1 X51.622 Y84.995 E0.11845
G1 X51.049 Y84.548 E0.02417
G1 X50.335 Y83.94 E0.03119
G1 X49.675 Y83.274 E0.03119
G1 X49.074 Y82.554 E0.03119
G1 X48.307 Y81.407 E0.04589
G1 X47.756 Y80.457 E0.03653
G1 X47.264 Y79.573 E0.03365
G1 X46.954 Y78.996 E0.02179
G1 X46.546 Y78.152 E0.03118
G1 X46.211 Y77.276 E0.03119
G1 X45.854 Y75.93 E0.04632
G1 X45.687 Y74.882 E0.0353
G1 X45.624 Y73.947 E0.03117
G1 X45.64 Y73.009 E0.0312
G1 X45.726 Y72.145 E0.02888
G1 X45.893 Y70.985 E0.03898
G1 X46.081 Y69.868 E0.03767
G1 X46.215 Y69.199 E0.02269
G1 X46.406 Y68.377 E0.02807
G1 X46.954 Y65.861 E0.08564
G1 X47.645 Y62.047 E0.12892
G1 F2400 E-7
G0 F6000 X47.348 Y65.933
G1 F2400 E7
G1 F1200 X48.038 Y62.124 E0.12875
G1 X48.222 Y60.991 E0.03818
G1 X48.409 Y60.089 E0.03064
G1 X48.572 Y59.516 E0.01981
G1 X48.984 Y58.211 E0.04552
G1 X49.177 Y57.641 E0.02002
G1 X49.461 Y56.893 E0.02661
G1 X49.846 Y56.057 E0.03061
G1 X50.302 Y55.257 E0.03063
G1 X50.826 Y54.5 E0.03062
G1 X51.414 Y53.791 E0.03064
G1 X51.826 Y53.36 E0.01983
G1 X52.874 Y52.335 E0.04876
G1 X53.388 Y51.862 E0.02323
G1 X54.092 Y51.269 E0.03061
G1 X54.845 Y50.739 E0.03063
G1 X55.641 Y50.276 E0.03063
G1 X56.474 Y49.884 E0.03062
G1 X57.04 Y49.666 E0.02017
G1 X58.44 Y49.177 E0.04932
G1 X59.101 Y48.966 E0.02308
G1 X60.242 Y48.67 E0.03921
G1 X60.817 Y48.555 E0.0195
G1 X63.381 Y48.004 E0.08723
G1 X65.795 Y47.415 E0.08265
G1 X68.247 Y46.742 E0.08457
G1 X68.971 Y46.535 E0.02505
G1 X69.866 Y46.321 E0.03061
G1 X71.048 Y46.159 E0.03968
G1 X71.808 Y46.108 E0.02533
G1 X72.407 Y46.085 E0.01994
G1 X73.328 Y46.089 E0.03063
G1 X74.219 Y46.17 E0.02976
G1 X74.406 Y46.195 E0.00627
G1 X75.312 Y46.357 E0.03061
G1 X76.096 Y46.558 E0.02692
G1 X79.955 Y47.688 E0.13374
G1 X82.463 Y48.386 E0.08659
G1 X85.637 Y49.169 E0.10873
G1 X87.381 Y49.647 E0.06014
G1 X88.039 Y49.845 E0.02285
G1 X88.909 Y50.148 E0.03064
G1 X90.016 Y50.665 E0.04064
G1 X90.924 Y51.161 E0.03441
G1 X91.33 Y51.397 E0.01562
G1 X92.436 Y52.136 E0.04424
G1 X92.981 Y52.556 E0.02288
G1 X94.021 Y53.389 E0.04432
G1 X94.714 Y53.995 E0.03062
G1 X95.351 Y54.659 E0.0306
G1 X95.929 Y55.376 E0.03063
G1 X96.211 Y55.778 E0.01633
G1 X96.892 Y56.801 E0.04087
G1 X97.144 Y57.192 E0.01547
G1 X98.586 Y59.29 E0.08467
G1 X100.881 Y62.426 E0.12925
G1 X101.474 Y63.286 E0.03474
G1 X101.963 Y64.066 E0.03062
G1 X102.382 Y64.885 E0.0306
G1 X102.783 Y65.892 E0.03605
G1 X102.869 Y66.145 E0.00889
G1 X103.127 Y67.028 E0.0306
G1 X103.239 Y67.537 E0.01733
G1 X103.337 Y68.042 E0.01711
G1 X103.473 Y68.952 E0.0306
G1 X103.518 Y69.527 E0.01918
G1 X103.565 Y70.549 E0.03403
G1 X103.58 Y71.252 E0.02339
G1 X103.559 Y72.172 E0.03061
G1 X103.459 Y73.087 E0.03061
G1 X103.28 Y73.991 E0.03065
G1 X103.023 Y74.875 E0.03062
G1 X102.762 Y75.574 E0.02482
G1 X102.389 Y76.416 E0.03063
G1 X101.709 Y77.591 E0.04515
G1 X100.834 Y78.892 E0.05215
G1 X100.475 Y79.395 E0.02055
G1 X100.008 Y80.001 E0.02545
G1 X98.112 Y82.289 E0.09883
G1 X96.577 Y84.249 E0.0828
G1 X95.014 Y86.365 E0.0875
G1 X94.312 Y87.357 E0.04042
G1 X93.749 Y88.085 E0.03061
G1 X93.124 Y88.761 E0.03062
G1 X92.442 Y89.38 E0.03063
G1 X92.037 Y89.701 E0.01719
G1 X91.391 Y90.178 E0.02671
G1 X90.816 Y90.577 E0.02328
G1 X90.038 Y91.068 E0.0306
G1 X89.219 Y91.49 E0.03064
G1 X88.362 Y91.842 E0.03081
G1 X88.148 Y91.919 E0.00756
G1 X87.464 Y92.139 E0.0239
G1 X85.969 Y92.565 E0.0517
G1 X85.073 Y92.779 E0.03064
G1 X84.617 Y92.857 E0.01539
G1 X83.905 Y92.96 E0.02393
G1 X82.569 Y93.129 E0.04479
G1 X79.953 Y93.499 E0.08787
G1 X77.491 Y93.919 E0.08307
G1 X72.407 Y94.926 E0.17238
G1 X71.803 Y95.035 E0.02041
G1 X71.145 Y95.133 E0.02213
G1 X70.913 Y95.16 E0.00777
G1 X69.995 Y95.227 E0.03061
G1 X69.075 Y95.213 E0.0306
G1 X68.159 Y95.12 E0.03062
G1 X67.008 Y94.887 E0.03906
G1 X66.106 Y94.649 E0.03103
G1 X64.341 Y94.151 E0.061
G1 X63.089 Y93.711 E0.04414
G1 X62.907 Y93.634 E0.00657
G1 X62.075 Y93.239 E0.03063
G1 X61.281 Y92.773 E0.03062
G1 X60.531 Y92.24 E0.0306
G1 X59.756 Y91.576 E0.03394
G1 X58.883 Y90.75 E0.03997
G1 X58.4 Y90.28 E0.02242
G1 X56.556 Y88.587 E0.08326
G1 X54.682 Y86.961 E0.08252
G1 X51.836 Y84.655 E0.12183
G1 X51.295 Y84.233 E0.02282
G1 X50.594 Y83.635 E0.03065
G1 X49.948 Y82.98 E0.0306
G1 X49.361 Y82.27 E0.03064
G1 X48.653 Y81.206 E0.04251
G1 X48.105 Y80.262 E0.0363
G1 X47.616 Y79.384 E0.03343
G1 X47.306 Y78.807 E0.02179
G1 X46.906 Y77.978 E0.03061
G1 X46.58 Y77.117 E0.03062
G1 X46.247 Y75.852 E0.04351
G1 X46.083 Y74.821 E0.03472
G1 X46.023 Y73.903 E0.0306
G1 X46.042 Y72.982 E0.03064
G1 X46.122 Y72.201 E0.02611
G1 X46.287 Y71.052 E0.03861
G1 X46.475 Y69.935 E0.03767
G1 X46.604 Y69.29 E0.02188
G1 X46.806 Y68.422 E0.02964
G1 X47.348 Y65.933 E0.08472
G1 F2400 E-7
G0 F6000 X46.422 Y73.859
G1 F2400 E7
G1 F1200 X46.445 Y72.957 E0.03001
G1 X46.518 Y72.256 E0.02344
G1 X46.681 Y71.118 E0.03824
G1 X46.869 Y70.001 E0.03767
G1 X46.994 Y69.381 E0.02104
G1 X47.191 Y68.533 E0.02896
G1 X47.739 Y66.02 E0.08555
G1 X48.438 Y62.159 E0.1305
G1 X48.617 Y61.055 E0.0372
G1 X48.801 Y60.171 E0.03003
G1 X48.953 Y59.636 E0.0185
G1 X49.363 Y58.34 E0.04521
G1 X49.556 Y57.77 E0.02002
G1 X49.831 Y57.045 E0.02579
G1 X50.21 Y56.225 E0.03005
G1 X50.659 Y55.441 E0.03005
G1 X51.176 Y54.701 E0.03002
G1 X51.757 Y54.009 E0.03005
G1 X52.107 Y53.645 E0.0168
G1 X53.145 Y52.629 E0.04831
G1 X53.659 Y52.156 E0.02323
G1 X54.35 Y51.575 E0.03003
G1 X55.09 Y51.057 E0.03004
G1 X55.872 Y50.606 E0.03002
G1 X56.692 Y50.226 E0.03006
G1 X57.173 Y50.043 E0.01712
G1 X58.561 Y49.558 E0.0489
G1 X59.222 Y49.347 E0.02308
G1 X60.321 Y49.063 E0.03775
G1 X60.832 Y48.961 E0.01733
G1 X63.455 Y48.397 E0.08924
G1 X65.924 Y47.794 E0.08453
G1 X68.365 Y47.125 E0.08418
G1 X69.081 Y46.92 E0.02477
G1 X69.959 Y46.71 E0.03003
G1 X71.08 Y46.558 E0.03763
G1 X71.824 Y46.508 E0.0248
G1 X72.423 Y46.485 E0.01994
G1 X73.326 Y46.49 E0.03003
G1 X74.166 Y46.567 E0.02806
G1 X74.353 Y46.592 E0.00627
G1 X75.667 Y46.857 E0.04458
G1 X76.197 Y47.002 E0.01828
G1 X79.864 Y48.078 E0.12711
G1 X82.365 Y48.773 E0.08634
G1 X85.533 Y49.556 E0.10854
G1 X87.266 Y50.03 E0.05976
G1 X87.924 Y50.228 E0.02285
G1 X88.777 Y50.526 E0.03005
G1 X89.826 Y51.017 E0.03852
G1 X90.723 Y51.507 E0.034
G1 X91.129 Y51.743 E0.01562
G1 X92.193 Y52.454 E0.04256
G1 X92.731 Y52.868 E0.02258
G1 X93.771 Y53.701 E0.04432
G1 X94.45 Y54.296 E0.03003
G1 X95.074 Y54.949 E0.03004
G1 X95.878 Y56 E0.04401
G1 X96.556 Y57.018 E0.04068
G1 X96.822 Y57.43 E0.01631
G1 X98.249 Y59.507 E0.08381
G1 X100.551 Y62.653 E0.12966
G1 X101.144 Y63.513 E0.03474
G1 X101.623 Y64.278 E0.03002
G1 X102.033 Y65.083 E0.03005
G1 X102.404 Y66.02 E0.03352
G1 X102.49 Y66.273 E0.00889
G1 X102.743 Y67.14 E0.03004
G1 X102.846 Y67.613 E0.0161
G1 X102.944 Y68.118 E0.01711
G1 X103.077 Y69.011 E0.03003
G1 X103.118 Y69.547 E0.01788
G1 X103.165 Y70.557 E0.03363
G1 X103.18 Y71.26 E0.02339
G1 X103.159 Y72.163 E0.03004
G1 X103.058 Y73.061 E0.03006
G1 X102.879 Y73.946 E0.03003
G1 X102.478 Y75.201 E0.04382
G1 X102.389 Y75.428 E0.00811
G1 X102.023 Y76.254 E0.03005
G1 X101.376 Y77.369 E0.04288
G1 X100.508 Y78.66 E0.05174
G1 X100.149 Y79.163 E0.02055
G1 X99.7 Y79.746 E0.02447
G1 X97.823 Y82.011 E0.09784
G1 X96.226 Y84.05 E0.08614
G1 X94.715 Y86.097 E0.08462
G1 X93.986 Y87.126 E0.04194
G1 X93.432 Y87.84 E0.03006
G1 X92.817 Y88.501 E0.03003
G1 X91.797 Y89.381 E0.04481
G1 X91.163 Y89.849 E0.02621
G1 X90.588 Y90.248 E0.02328
G1 X89.824 Y90.73 E0.03005
G1 X89.02 Y91.142 E0.03005
G1 X88.226 Y91.466 E0.02852
G1 X88.012 Y91.543 E0.00756
G1 X87.354 Y91.755 E0.02299
G1 X85.859 Y92.181 E0.0517
G1 X84.558 Y92.461 E0.04426
G1 X83.855 Y92.563 E0.02363
G1 X82.53 Y92.731 E0.04442
G1 X79.902 Y93.103 E0.08828
G1 X77.418 Y93.526 E0.08381
G1 X72.335 Y94.533 E0.17235
G1 X71.731 Y94.642 E0.02041
G1 X71.099 Y94.736 E0.02125
G1 X70.867 Y94.763 E0.00777
G1 X69.966 Y94.827 E0.03004
G1 X69.063 Y94.812 E0.03004
G1 X68.165 Y94.717 E0.03003
G1 X67.109 Y94.5 E0.03586
G1 X66.214 Y94.264 E0.03079
G1 X64.449 Y93.766 E0.061
G1 X63.245 Y93.343 E0.04244
G1 X63.063 Y93.266 E0.00657
G1 X62.247 Y92.878 E0.03005
G1 X61.47 Y92.419 E0.03002
G1 X60.735 Y91.893 E0.03006
G1 X60.031 Y91.285 E0.03094
G1 X59.162 Y90.463 E0.03979
G1 X58.685 Y89.999 E0.02213
G1 X56.824 Y88.29 E0.08404
G1 X54.928 Y86.646 E0.08347
G1 X52.078 Y84.336 E0.12202
G1 X51.541 Y83.917 E0.02265
G1 X50.854 Y83.331 E0.03003
G1 X50.222 Y82.686 E0.03003
G1 X49.649 Y81.988 E0.03004
G1 X48.999 Y81.005 E0.0392
G1 X48.455 Y80.067 E0.03607
G1 X47.969 Y79.194 E0.03323
G1 X47.659 Y78.617 E0.02179
G1 X47.267 Y77.804 E0.03002
G1 X46.949 Y76.959 E0.03003
G1 X46.639 Y75.774 E0.04074
G1 X46.479 Y74.761 E0.03411
G1 X46.422 Y73.859 E0.03006
G1 F2400 E-7
;MESH:-----Bunny.stl
G0 F6000 X55.944 Y73.603
G0 X57.042 Y73.644
G0 X58.323 Y75.371
G1 F2400 E7
G0 F6000 X57.91 Y75.669
;TYPE:WALL-OUTER
G1 F1200 X58.008 Y75.769 E0.00466
G1 X60.395 Y77.276 E0.09389
G1 X60.655 Y77.375 E0.00925
G1 X64.154 Y78.482 E0.12206
G1 X64.262 Y78.547 E0.00419
G1 X65.011 Y79.324 E0.0359
G1 X65.061 Y79.406 E0.00319
G1 X66.309 Y82.584 E0.11356
G1 X67.128 Y83.682 E0.04556
G1 X67.346 Y83.786 E0.00803
G1 X69.721 Y84.443 E0.08196
G1 X69.782 Y84.436 E0.00204
G1 X72.613 Y83.882 E0.09595
G1 X76.296 Y83.096 E0.12526
G1 X78.444 Y82.767 E0.07228
G1 X83.027 Y82.184 E0.15366
G1 X84.51 Y81.742 E0.05147
G1 X84.692 Y81.694 E0.00626
G1 X85.52 Y81.099 E0.03391
G1 X86.305 Y79.855 E0.04892
G1 X86.383 Y79.68 E0.00637
G1 X87.429 Y76.588 E0.10857
G1 X87.928 Y75.674 E0.03464
G1 X88.083 Y75.549 E0.00662
G1 X89.481 Y74.687 E0.05463
G1 X89.787 Y74.563 E0.01098
G1 X91.618 Y73.219 E0.07554
G1 X91.682 Y73.14 E0.00338
G1 X92.713 Y71.648 E0.06032
G1 X92.791 Y71.462 E0.00671
G1 X92.749 Y70.264 E0.03987
G1 X92.704 Y69.89 E0.01253
G1 X92.618 Y69.485 E0.01377
G1 X92.555 Y69.359 E0.00469
G1 X91.726 Y68.183 E0.04786
G1 X91.53 Y67.995 E0.00903
G1 X90.623 Y67.184 E0.04047
G1 X89.958 Y66.606 E0.0293
G1 X89.733 Y66.478 E0.00861
G1 X89.637 Y66.369 E0.00483
G1 X88.743 Y65.235 E0.04803
G1 X87.812 Y63.072 E0.07832
G1 X87.338 Y61.972 E0.03984
G1 X87.196 Y61.757 E0.00857
G1 X85.888 Y60.716 E0.0556
G1 X84.942 Y60.183 E0.03611
G1 X83.042 Y59.639 E0.06573
G1 X80.557 Y59.099 E0.08458
G1 X80.191 Y59.013 E0.0125
G1 X73.329 Y57.001 E0.23784
G1 X72.882 Y56.872 E0.01547
G1 X72.827 Y56.868 E0.00183
G1 X71.919 Y56.915 E0.03024
G1 X71.821 Y56.946 E0.00342
G1 X70.861 Y57.358 E0.03475
G1 X69.918 Y58.184 E0.0417
G1 X68.494 Y59.739 E0.07013
G1 X68.392 Y59.879 E0.00576
G1 X67.718 Y60.509 E0.03069
G1 X67.477 Y60.583 E0.00839
G1 X66.804 Y60.469 E0.0227
G1 X66.775 Y60.461 E0.001
G1 X64.243 Y59.623 E0.08871
G1 X63.911 Y59.549 E0.01131
G1 X62.394 Y59.253 E0.05141
G1 X62.325 Y59.263 E0.00232
G1 X60.682 Y59.816 E0.05766
G1 X59.434 Y60.999 E0.05719
G1 X59.425 Y61.02 E0.00076
G1 X58.863 Y62.763 E0.06091
G1 X58.855 Y62.871 E0.0036
G1 X58.827 Y64.475 E0.05336
G1 X59.607 Y66.309 E0.06629
G1 X59.792 Y66.553 E0.01018
G1 X60.545 Y67.69 E0.04536
G1 X60.556 Y67.849 E0.0053
G1 X60.474 Y68.095 E0.00862
G1 X58.577 Y69.999 E0.08939
G1 X58.256 Y70.349 E0.0158
G1 X57.109 Y71.779 E0.06097
G1 X56.81 Y73.652 E0.06309
G1 X56.831 Y73.734 E0.00282
G1 X57.91 Y75.669 E0.07369
G0 F6000 X58.243 Y75.444
;TYPE:WALL-INNER
G1 F1200 X60.578 Y76.918 E0.09184
